exported-svg/x.svg

<svg height="24" viewBox="0 0 24 24" width="24" xmlns="http://www.w3.org/2000/svg"><path d="m12.652714 12 5.2121045 5.2121046c.180242.1802419.180242.4724719 0 .6527139s-.472472.180242-.6527139 0l-5.2121046-5.2121045-5.21210456 5.2121045c-.18024198.180242-.47247197.180242-.65271395 0-.18024199-.180242-.18024199-.472472 0-.6527139l5.21210451-5.2121046-5.21210451-5.21210456c-.18024199-.18024198-.18024199-.47247197 0-.65271395.18024198-.18024199.47247197-.18024199.65271395 0l5.21210456 5.21210451 5.2121046-5.21210451c.1802419-.18024199.4724719-.18024199.6527139 0 .180242.18024198.180242.47247197 0 .65271395z"/></svg>

<?xml version="1.0" encoding="UTF-8"?>
<svg width="24px" height="24px" viewBox="0 0 24 24" version="1.1" xmlns="http://www.w3.org/2000/svg" xmlns:xlink="http://www.w3.org/1999/xlink">
    <!-- Generator: Sketch 55.2 (78181) - https://sketchapp.com -->
    <title>x</title>
    <desc>Created with Sketch.</desc>
    <g id="x" stroke="none" stroke-width="1" fill="none" fill-rule="evenodd">
        <path d="M12.652714,12 L17.8648185,17.2121046 C18.0450605,17.3923465 18.0450605,17.6845765 17.8648185,17.8648185 C17.6845765,18.0450605 17.3923465,18.0450605 17.2121046,17.8648185 L12,12.652714 L6.78789544,17.8648185 C6.60765346,18.0450605 6.31542347,18.0450605 6.13518149,17.8648185 C5.9549395,17.6845765 5.9549395,17.3923465 6.13518149,17.2121046 L11.347286,12 L6.13518149,6.78789544 C5.9549395,6.60765346 5.9549395,6.31542347 6.13518149,6.13518149 C6.31542347,5.9549395 6.60765346,5.9549395 6.78789544,6.13518149 L12,11.347286 L17.2121046,6.13518149 C17.3923465,5.9549395 17.6845765,5.9549395 17.8648185,6.13518149 C18.0450605,6.31542347 18.0450605,6.60765346 17.8648185,6.78789544 L12.652714,12 Z" id="Combined-Shape" fill="#000000" fill-rule="nonzero"></path>
    </g>
</svg>
